svg/blobs-icons/no-decorations/transistor.svg

<svg xmlns="http://www.w3.org/2000/svg" xmlns:xlink="http://www.w3.org/1999/xlink" preserveAspectRatio="xMidYMid" width="213" height="214" viewBox="0 0 213 214"><defs><style>.cls-3{fill:#142a3b}.cls-4{fill:#020403;opacity:.35}.cls-5{fill:#fbb713}.cls-6{fill:#fff}.cls-7{fill:#020403;opacity:.25}</style></defs><g id="group-117svg"><path d="M168.19 115.996s-122.993.0-122.993.0.0-115.997.0-115.997 122.993.0 122.993.0.0 115.997.0 115.997z" id="path-1" class="cls-3" fill-rule="evenodd"/><path d="M150.713.201s0 70.45.0 70.45c0 14.891-12.058 26.962-26.932 26.962l-78.589 6.149s0 13.916.0 13.916S168.087 118.488 168.087 118.488s0-118.287.0-118.287-17.374.0-17.374.0z" id="path-2" class="cls-4" fill-rule="evenodd"/><path d="M136.121 57.5c0-16.423-13.297-29.732-29.697-29.732-16.4.0-29.698 13.309-29.698 29.732.0 16.421 13.298 29.732 29.698 29.732 16.4.0 29.697-13.311 29.697-29.732z" id="path-3" class="cls-5" fill-rule="evenodd"/><path d="M109.46 80.849C107.464 80.849 105.846 79.231 105.846 77.234S107.464 73.619 109.46 73.619C116.662 73.619 122.521 67.751 122.521 60.539c0-1.997 1.618-3.613 3.615-3.613C128.132 56.926 129.75 58.542 129.75 60.539c0 11.199-9.102 20.31-20.29 20.31z" id="path-4" class="cls-6" fill-rule="evenodd"/><path d="M80.202 63.961c0-16.422 13.297-29.731 29.696-29.731 10.205.0 19.203 5.155 24.549 13.003-4.041-11.614-15.046-19.962-28.023-19.962-16.4.0-29.698 13.309-29.698 29.732C76.726 63.207 78.629 68.964 81.876 73.73 80.81 70.666 80.202 67.388 80.202 63.961z" id="path-5" class="cls-7" fill-rule="evenodd"/><path d="M207.848 122.996s-202.416.0-202.416.0C2.437 122.996.01 120.489.01 117.495S2.437 111.996 5.432 111.996H207.848C210.843 111.996 213.269 114.501 213.269 117.495S210.843 122.996 207.848 122.996z" id="path-6" class="cls-3" fill-rule="evenodd"/><path d="M106.694 213.466C104.698 213.466 103.194 211.847 103.194 209.851V119.485c0-1.996 1.50399999999999-3.614 3.5-3.614C108.689 115.871 110.193 117.489 110.193 119.485v90.366C110.193 211.847 108.689 213.466 106.694 213.466z" id="path-7" class="cls-3" fill-rule="evenodd"/><path d="M55.134 176.994s-28.014.0-28.014.0c-1.996.0-3.615-1.505-3.615-3.5.0-1.99600000000001 1.619-3.5 3.615-3.5H50.803s27.63-51.56 27.63-51.56C79.379 116.674 81.566 116.034 83.327 116.977 85.086 117.919 85.749 119.959 84.808 121.719L55.134 176.994z" id="path-8" class="cls-3" fill-rule="evenodd"/><path d="M186.16 176.994s-28.454.0-28.454.0-29.455-55.273-29.455-55.273C127.315 119.957 127.985 117.851 129.748 116.915 131.507 115.976 133.7 116.64 134.637 118.402l27.414 51.592s24.109.0 24.109.0C188.156 169.994 189.775 171.498 189.775 173.494c0 1.995-1.619 3.5-3.61500000000001 3.5z" id="path-9" class="cls-3" fill-rule="evenodd"/></g></svg>

<svg xmlns="http://www.w3.org/2000/svg" xmlns:xlink="http://www.w3.org/1999/xlink" preserveAspectRatio="xMidYMid" width="213" height="214" viewBox="0 0 213 214">
  <defs>
    <style>

      .cls-3 {
        fill: #142a3b;
      }

      .cls-4 {
        fill: #020403;
        opacity: 0.35;
      }

      .cls-5 {
        fill: #fbb713;
      }

      .cls-6 {
        fill: #ffffff;
      }

      .cls-7 {
        fill: #020403;
        opacity: 0.25;
      }
    </style>
  </defs>
  <g id="group-117svg">
    <path d="M168.190,115.996 C168.190,115.996 45.197,115.996 45.197,115.996 C45.197,115.996 45.197,-0.001 45.197,-0.001 C45.197,-0.001 168.190,-0.001 168.190,-0.001 C168.190,-0.001 168.190,115.996 168.190,115.996 Z" id="path-1" class="cls-3" fill-rule="evenodd"/>
    <path d="M150.713,0.201 C150.713,0.201 150.713,70.651 150.713,70.651 C150.713,85.542 138.655,97.613 123.781,97.613 C123.781,97.613 45.192,103.762 45.192,103.762 C45.192,103.762 45.192,117.678 45.192,117.678 C45.192,117.678 168.087,118.488 168.087,118.488 C168.087,118.488 168.087,0.201 168.087,0.201 C168.087,0.201 150.713,0.201 150.713,0.201 Z" id="path-2" class="cls-4" fill-rule="evenodd"/>
    <path d="M136.121,57.500 C136.121,41.077 122.824,27.768 106.424,27.768 C90.024,27.768 76.726,41.077 76.726,57.500 C76.726,73.921 90.024,87.232 106.424,87.232 C122.824,87.232 136.121,73.921 136.121,57.500 Z" id="path-3" class="cls-5" fill-rule="evenodd"/>
    <path d="M109.460,80.849 C107.464,80.849 105.846,79.231 105.846,77.234 C105.846,75.237 107.464,73.619 109.460,73.619 C116.662,73.619 122.521,67.751 122.521,60.539 C122.521,58.542 124.139,56.926 126.136,56.926 C128.132,56.926 129.750,58.542 129.750,60.539 C129.750,71.738 120.648,80.849 109.460,80.849 Z" id="path-4" class="cls-6" fill-rule="evenodd"/>
    <path d="M80.202,63.961 C80.202,47.539 93.499,34.230 109.898,34.230 C120.103,34.230 129.101,39.385 134.447,47.233 C130.406,35.619 119.401,27.271 106.424,27.271 C90.024,27.271 76.726,40.580 76.726,57.003 C76.726,63.207 78.629,68.964 81.876,73.730 C80.810,70.666 80.202,67.388 80.202,63.961 Z" id="path-5" class="cls-7" fill-rule="evenodd"/>
    <path d="M207.848,122.996 C207.848,122.996 5.432,122.996 5.432,122.996 C2.437,122.996 0.010,120.489 0.010,117.495 C0.010,114.501 2.437,111.996 5.432,111.996 C5.432,111.996 207.848,111.996 207.848,111.996 C210.843,111.996 213.269,114.501 213.269,117.495 C213.269,120.489 210.843,122.996 207.848,122.996 Z" id="path-6" class="cls-3" fill-rule="evenodd"/>
    <path d="M106.694,213.466 C104.698,213.466 103.194,211.847 103.194,209.851 C103.194,209.851 103.194,119.485 103.194,119.485 C103.194,117.489 104.698,115.871 106.694,115.871 C108.689,115.871 110.193,117.489 110.193,119.485 C110.193,119.485 110.193,209.851 110.193,209.851 C110.193,211.847 108.689,213.466 106.694,213.466 Z" id="path-7" class="cls-3" fill-rule="evenodd"/>
    <path d="M55.134,176.994 C55.134,176.994 27.120,176.994 27.120,176.994 C25.124,176.994 23.505,175.489 23.505,173.494 C23.505,171.498 25.124,169.994 27.120,169.994 C27.120,169.994 50.803,169.994 50.803,169.994 C50.803,169.994 78.433,118.434 78.433,118.434 C79.379,116.674 81.566,116.034 83.327,116.977 C85.086,117.919 85.749,119.959 84.808,121.719 C84.808,121.719 55.134,176.994 55.134,176.994 Z" id="path-8" class="cls-3" fill-rule="evenodd"/>
    <path d="M186.160,176.994 C186.160,176.994 157.706,176.994 157.706,176.994 C157.706,176.994 128.251,121.721 128.251,121.721 C127.315,119.957 127.985,117.851 129.748,116.915 C131.507,115.976 133.700,116.640 134.637,118.402 C134.637,118.402 162.051,169.994 162.051,169.994 C162.051,169.994 186.160,169.994 186.160,169.994 C188.156,169.994 189.775,171.498 189.775,173.494 C189.775,175.489 188.156,176.994 186.160,176.994 Z" id="path-9" class="cls-3" fill-rule="evenodd"/>
  </g>
</svg>
